assets/img/microillustration/leaf-2.svg

<?xml version="1.0" encoding="UTF-8"?>
<svg viewBox="0 0 106 106" version="1.1" xmlns="http://www.w3.org/2000/svg" xmlns:xlink="http://www.w3.org/1999/xlink">
    <title>4. Elements_Microillustrations/Leaf 2</title>
    <defs>
        <path d="M88,44 C88,68.3004855 68.3000427,88 43.9990109,88 C19.6979792,88 0,68.3004855 0,44 C0,19.6995145 19.6979792,0 43.9990109,0 C68.3000427,0 88,19.6995145 88,44" id="path-1"></path>
    </defs>
    <g id="4.-Elements_Microillustrations/Leaf-2" stroke="none" stroke-width="1" fill="none" fill-rule="evenodd">
        <g id="Vector-Smart-Object" transform="translate(11.000000, 9.000000)">
            <mask id="mask-2" fill="white">
                <use xlink:href="#path-1"></use>
            </mask>
            <use id="Mask" fill="#FFEACF" xlink:href="#path-1"></use>
            <g id="Group-21" mask="url(#mask-2)">
                <g transform="translate(25.142857, 16.761905)">
                    <path d="M19.9898041,0.848421026 C19.1787871,-0.282807009 17.4878796,-0.282807009 16.6768625,0.848421026 C15.0460598,3.12274977 12.4470428,6.72935043 9.97142403,10.0872582 C4.77992653,17.1290182 -2.29937375,27.5584468 0.726276206,39.4067386 C3.40405135,49.8922062 10.5249627,55.5238095 18.3333333,55.5238095 C26.141704,55.5238095 33.2627747,49.8922062 35.9403905,39.4067386 C38.9660404,27.5584468 31.8867401,17.1290182 26.6952426,10.0872582 C24.2196239,6.72935043 21.6206068,3.12274977 19.9898041,0.848421026 Z" id="Fill-1" fill="#D76230"></path>
                    <path d="M36.6666667,33.0741375 C36.6560808,32.8741499 36.6428484,32.6748822 36.6265026,32.4761905 C33.5010187,38.7608969 28.9115687,41.8554489 25.5900902,43.345781 C23.7820826,44.1569617 22.1467184,44.5933636 20.952381,44.8277623 C21.07443,44.9026317 21.1957007,44.9757733 21.3163487,45.047619 C22.4960527,44.7975266 24.0310067,44.3638603 25.7119836,43.6111353 C28.9989023,42.1389446 33.5077127,39.1231494 36.6666667,33.0741375" id="Fill-3" fill="#AA391B"></path>
                    <path d="M18.8580253,30.0853967 C18.8577312,30.183772 18.8575841,30.2822906 18.8571429,30.3809524 C19.7621198,30.1567081 21.9891897,29.4865526 24.4755598,27.8577026 C26.6443864,26.4369158 29.3418149,24.051277 31.4285714,20.2109141 C31.3728285,20.1085293 31.3172326,20.0062876 31.2609014,19.9047619 C29.1920885,23.7900883 26.4899535,26.1907626 24.3233331,27.6122654 C21.9293286,29.1831211 19.7831521,29.8498399 18.8580253,30.0853967" id="Fill-5" fill="#AA391B"></path>
                    <path d="M18.8614037,16.7619048 C19.5193699,16.4960788 21.0176977,15.7995202 22.60583,14.4401859 C23.8042627,13.4145299 25.1896792,11.8755448 26.1904762,9.70341576 C26.1139456,9.61194413 26.0375789,9.52032935 25.9610483,9.42857143 C24.97795,11.6396368 23.5872895,13.1972311 22.3880374,14.2258933 C20.9454279,15.4632653 19.5524731,16.1485152 18.8571429,16.4445455 L18.8614037,16.7619048 Z" id="Fill-7" fill="#AA391B"></path>
                    <path d="M20.8604755,6.49983137 C21.2565752,5.98128644 21.6719362,5.30642897 22,4.47469365 C21.9251294,4.37971894 21.8494821,4.28361359 21.7761648,4.19047619 C20.9811694,6.33927889 19.5061251,7.57112342 18.8571429,8.03059183 C18.8596282,8.14733157 18.8614922,8.26407131 18.8638222,8.38095238 C19.2120793,8.15750743 20.05383,7.55585963 20.8604755,6.49983137" id="Fill-9" fill="#AA391B"></path>
                    <path d="M18.8571429,55.5238095 C21.813664,55.4739054 24.6626151,54.6345805 27.1951561,53.0463916 C27.6298459,49.1978905 24.7043516,48.2988616 21.1296574,46.0952381 C20.1780646,46.3039009 19.4549989,46.3905924 19.0703929,46.4251182 C19.0144817,49.4582666 18.9470733,52.4912642 18.8571429,55.5238095" id="Fill-11" fill="#AA391B"></path>
                    <path d="M10.3227057,20.5726203 C10.6433571,17.661325 10.4597336,13.9558483 9.78930837,10.4761905 C9.75804025,10.5211595 9.72661886,10.5667778 9.69550402,10.6120715 C7.91689997,13.1852065 5.90823003,16.2000766 4.19047619,19.5644709 C5.91528068,23.1084165 8.0674161,25.5674244 10.0195275,27.2380952 C9.9447293,25.0471154 10.0744,22.8269139 10.3227057,20.5726203" id="Fill-13" fill="#AA391B"></path>
                    <path d="M18.8874888,45.2032127 C18.8782871,45.8498357 18.8669319,46.4964587 18.8571429,47.1428571 C19.2770911,47.0963811 20.0038266,46.9910804 20.952381,46.7602719 C20.2765482,46.2456677 19.5850531,45.6812198 18.8894466,45.047619 C18.8886634,45.0992591 18.8880761,45.1515727 18.8874888,45.2032127" id="Fill-15" fill="#AA391B"></path>
                    <path d="M17.6444894,29.1281857 C17.6441813,28.8948889 17.6431026,28.6612814 17.6429485,28.4279846 C17.642178,28.0687199 17.6431026,27.7092999 17.6432567,27.3500353 C17.6444894,25.0333762 17.6615938,22.7165618 17.6659085,20.3997473 L17.7203036,12.3698015 L17.7985832,1.04915911 C17.7297033,1.04636328 17.6609775,1.04761905 17.5922517,1.05179962 C17.477606,3.51725922 17.377445,5.9833401 17.2933099,8.45004229 C16.8922039,8.12945333 16.2402334,7.53223212 15.6213931,6.63166294 C15.208422,6.03071396 14.7735695,5.23188206 14.4493563,4.23361401 C14.3778568,4.33426403 14.3048164,4.43693327 14.2319301,4.5396025 C15.1030219,7.00692599 16.6817119,8.37936982 17.2814447,8.83012038 C17.2421508,10.0067005 17.204706,11.1832806 17.1715758,12.3598608 L17.0675626,16.3756103 L17.0503041,17.2887607 C16.3547251,16.9288748 15.1494041,16.2013367 13.9047892,14.9696165 C12.7694267,13.8456912 11.4516173,12.1402325 10.5261304,9.71484651 C10.4541687,9.81456459 10.382361,9.9138167 10.3103992,10.0133794 C11.2528364,12.3957406 12.5654066,14.0814732 13.6999986,15.2021367 C15.0644984,16.549884 16.3584233,17.2968376 17.0436781,17.6360655 L16.9914403,20.3921365 C16.944904,23.0700794 16.9210195,25.748333 16.9142393,28.4270526 C16.9116198,29.1326901 16.9110034,29.8381722 16.9117738,30.5436543 C15.8519173,30.2446554 13.738522,29.5091957 11.3981467,27.9194534 C10.9395639,27.6078733 10.4577128,27.2518704 9.9632261,26.8492703 C9.9681571,26.9861109 9.97262582,27.1231067 9.97940594,27.259792 C10.4121011,27.6032136 10.8343179,27.9113766 11.2386598,28.185679 C13.6656357,29.8316486 15.8576188,30.5753404 16.9126984,30.8659518 C16.9205572,35.0432384 16.9863552,39.220059 17.0916012,43.3951711 C16.477846,42.8200059 15.867943,42.1710618 15.2743741,41.4265933 C11.6066355,36.8262039 10.217943,32.1191067 9.97940594,27.259792 C7.97033213,25.6652346 5.72903909,23.2914163 3.92706723,19.8387166 C1.97423762,23.5489437 0.429139969,27.6933015 0.0765735569,32.1410074 C3.17123757,38.9892474 7.7430439,42.3524804 11.0472754,43.9681617 C13.8352929,45.3312861 16.2089524,45.7141601 17.1610975,45.8185379 L17.1708054,46.1318266 C16.2205095,46.0308659 13.7850583,45.6495452 10.9264659,44.2544241 C7.65598096,42.6580029 3.16245423,39.3795769 0.0332732239,32.7848259 C-0.0847625593,35.0244442 0.105080894,37.3381521 0.701731745,39.7099513 C3.26970345,49.9183177 10.0663148,55.4346535 17.5443285,55.5199264 C17.60273,55.5205477 17.6609775,55.5238095 17.7195331,55.5238095 C17.7495814,55.5238095 17.7794755,55.522101 17.8095238,55.5217903 C17.7876425,51.8420068 17.7551287,48.1633106 17.7280082,44.4849251 C17.6839374,39.3652871 17.6512696,34.2465811 17.6444894,29.1281857" id="Fill-17" fill="#AA391B"></path>
                    <path d="M18.6154524,45.8329711 C18.6264684,45.3857638 18.6390266,44.9384011 18.6496019,44.4910385 C18.6504832,44.4553116 18.6511442,44.4191187 18.6518051,44.3833918 C18.7427971,39.8967171 18.8232137,35.4097317 18.8465675,30.923057 C18.8472285,30.8158764 18.8474488,30.7091617 18.8481098,30.6022918 C18.8514146,29.8771914 18.8571429,29.1524018 18.8571429,28.4274568 C18.8267388,25.7502709 18.8049271,23.0729296 18.7540333,20.3957436 L18.7097491,17.7207324 L18.7040208,17.3765116 L18.6874969,16.3800424 L18.5998097,12.3643411 C18.5740323,11.2055476 18.5449502,10.0465986 18.5143258,8.88764975 C18.511021,8.75934365 18.5083771,8.63103755 18.504852,8.50273145 C18.4383156,6.02126667 18.3585599,3.54011256 18.267568,1.05911378 C18.1891342,1.05243441 18.1104802,1.04963839 18.0318261,1.04761905 L17.9196835,12.3690011 L17.8421311,20.3994716 C17.8357418,22.7164374 17.8115067,25.0334032 17.8095238,27.3502137 C17.8115067,27.7093465 17.8134896,28.0684793 17.8152521,28.4276121 L17.8112864,29.1284803 C17.8212007,34.2472101 17.8676881,39.3662506 17.9309198,44.4862231 C17.9694757,48.164849 18.0159631,51.8437856 18.0472485,55.5238095 C18.1349357,55.5238095 18.2219618,55.5207028 18.3094287,55.5196155 C18.4352311,52.3952222 18.5293075,49.2703629 18.6075209,46.1455037 C18.6101647,46.0412744 18.6130289,45.9370451 18.6154524,45.8329711" id="Fill-19" fill="#FC95A4"></path>
                </g>
            </g>
        </g>
    </g>
</svg>

<?xml version="1.0" encoding="UTF-8"?>
<svg version="1.1" viewBox="0 0 106 106" xmlns="http://www.w3.org/2000/svg" xmlns:xlink="http://www.w3.org/1999/xlink">
<title>4. Elements_Microillustrations/Leaf 2</title>
<defs>
<path id="a" d="m88 44c0 24.3-19.7 44-44.001 44-24.301 0-43.999-19.7-43.999-44s19.698-44 43.999-44c24.301 0 44.001 19.7 44.001 44"/>
</defs>
<g fill="none" fill-rule="evenodd">
<g transform="translate(11 9)">
<mask id="b" fill="white">
<use xlink:href="#a"/>
</mask>
<use fill="#FFEACF" xlink:href="#a"/>
<g mask="url(#b)">
<g transform="translate(25.143 16.762)">
<path d="m19.99 0.84842c-0.81102-1.1312-2.5019-1.1312-3.3129 0-1.6308 2.2743-4.2298 5.8809-6.7054 9.2388-5.1915 7.0418-12.271 17.471-9.2451 29.319 2.6778 10.485 9.7987 16.117 17.607 16.117 7.8084 0 14.929-5.6316 17.607-16.117 3.0256-11.848-4.0537-22.278-9.2451-29.319-2.4756-3.3579-5.0746-6.9645-6.7054-9.2388z" fill="#D76230"/>
<path d="m36.667 33.074c-0.010586-0.19999-0.023818-0.39926-0.040164-0.59795-3.1255 6.2847-7.7149 9.3793-11.036 10.87-1.808 0.81118-3.4434 1.2476-4.6377 1.482 0.12205 0.074869 0.24332 0.14801 0.36397 0.21986 1.1797-0.25009 2.7147-0.68376 4.3956-1.4365 3.2869-1.4722 7.7957-4.488 10.955-10.537" fill="#AA391B"/>
<path d="m18.858 30.085c-2.941e-4 0.098375-4.412e-4 0.19689-8.824e-4 0.29556 0.90498-0.22424 3.132-0.8944 5.6184-2.5232 2.1688-1.4208 4.8663-3.8064 6.953-7.6468-0.055743-0.10238-0.11134-0.20463-0.16767-0.30615-2.0688 3.8853-4.7709 6.286-6.9376 7.7075-2.394 1.5709-4.5402 2.2376-5.4653 2.4731" fill="#AA391B"/>
<path d="m18.861 16.762c0.65797-0.26583 2.1563-0.96238 3.7444-2.3217 1.1984-1.0257 2.5838-2.5646 3.5846-4.7368-0.076531-0.091472-0.1529-0.18309-0.22943-0.27484-0.9831 2.2111-2.3738 3.7687-3.573 4.7973-1.4426 1.2374-2.8356 1.9226-3.5309 2.2187l0.0042608 0.31736z" fill="#AA391B"/>
<path d="m20.86 6.4998c0.3961-0.51854 0.81146-1.1934 1.1395-2.0251-0.074871-0.094975-0.15052-0.19108-0.22384-0.28422-0.795 2.1488-2.27 3.3806-2.919 3.8401 0.0024853 0.11674 0.0043493 0.23348 0.0066793 0.35036 0.34826-0.22344 1.19-0.82509 1.9967-1.8811" fill="#AA391B"/>
<path d="m18.857 55.524c2.9565-0.049904 5.8055-0.88923 8.338-2.4774 0.43469-3.8485-2.4908-4.7475-6.0655-6.9512-0.95159 0.20866-1.6747 0.29535-2.0593 0.32988-0.055911 3.0331-0.12332 6.0661-0.21325 9.0987" fill="#AA391B"/>
<path d="m10.323 20.573c0.32065-2.9113 0.13703-6.6168-0.5334-10.096-0.031268 0.044969-0.06269 0.090587-0.093804 0.13588-1.7786 2.5731-3.7873 5.588-5.505 8.9524 1.7248 3.5439 3.8769 6.003 5.8291 7.6736-0.074798-2.191 0.054872-4.4112 0.30318-6.6655" fill="#AA391B"/>
<path d="m18.887 45.203c-0.0092017 0.64662-0.020557 1.2932-0.030346 1.9396 0.41995-0.046476 1.1467-0.15178 2.0952-0.38259-0.67583-0.5146-1.3673-1.0791-2.0629-1.7127-7.832e-4 0.05164-0.0013705 0.10395-0.0019578 0.15559" fill="#AA391B"/>
<path d="m17.644 29.128c-3.081e-4 -0.2333-0.0013868-0.4669-0.0015409-0.7002-7.705e-4 -0.35926 1.541e-4 -0.71868 3.082e-4 -1.0779 0.0012327-2.3167 0.018337-4.6335 0.022652-6.9503l0.054395-8.0299 0.07828-11.321c-0.06888-0.0027958-0.13761-0.0015401-0.20633 0.0026405-0.11465 2.4655-0.21481 4.9315-0.29894 7.3982-0.40111-0.32059-1.0531-0.91781-1.6719-1.8184-0.41297-0.60095-0.84782-1.3998-1.172-2.398-0.0715 0.10065-0.14454 0.20332-0.21743 0.30599 0.87109 2.4673 2.4498 3.8398 3.0495 4.2905-0.039294 1.1766-0.076739 2.3532-0.10987 3.5297l-0.10401 4.0157-0.017258 0.91315c-0.69558-0.35989-1.9009-1.0874-3.1455-2.3191-1.1354-1.1239-2.4532-2.8294-3.3787-5.2548-0.071962 0.099718-0.14377 0.19897-0.21573 0.29853 0.94244 2.3824 2.255 4.0681 3.3896 5.1888 1.3645 1.3477 2.6584 2.0947 3.3437 2.4339l-0.052238 2.7561c-0.046536 2.6779-0.070421 5.3562-0.077201 8.0349-0.0026195 0.70564-0.0032359 1.4111-0.0024655 2.1166-1.0599-0.299-3.1733-1.0345-5.5136-2.6242-0.45858-0.31158-0.94043-0.66758-1.4349-1.0702 0.004931 0.13684 0.0093997 0.27384 0.01618 0.41052 0.4327 0.34342 0.85491 0.65158 1.2593 0.92589 2.427 1.646 4.619 2.3897 5.674 2.6803 0.0078588 4.1773 0.073657 8.3541 0.1789 12.529-0.61376-0.57517-1.2237-1.2241-1.8172-1.9686-3.6677-4.6004-5.0564-9.3075-5.295-14.167-2.0091-1.5946-4.2504-3.9684-6.0523-7.4211-1.9528 3.7102-3.4979 7.8546-3.8505 12.302 3.0947 6.8482 7.6665 10.211 10.971 11.827 2.788 1.3631 5.1617 1.746 6.1138 1.8504l0.0097079 0.31329c-0.9503-0.10096-3.3857-0.48228-6.2443-1.8774-3.2705-1.5964-7.764-4.8748-10.893-11.47-0.11804 2.2396 0.071808 4.5533 0.66846 6.9251 2.568 10.208 9.3646 15.725 16.843 15.81 0.058402 6.213e-4 0.11665 0.0038831 0.1752 0.0038831 0.030048 0 0.059942-0.0017085 0.089991-0.0020192-0.021881-3.6798-0.054395-7.3585-0.081516-11.037-0.044071-5.1196-0.076739-10.238-0.083519-15.357" fill="#AA391B"/>
<path d="m18.615 45.833c0.011016-0.44721 0.023574-0.89457 0.03415-1.3419 8.813e-4 -0.035727 0.0015423-0.07192 0.0022032-0.10765 0.090992-4.4867 0.17141-8.9737 0.19476-13.46 6.61e-4 -0.10718 8.813e-4 -0.2139 0.0015423-0.32077 0.0033048-0.7251 0.0090331-1.4499 0.0090331-2.1748-0.030404-2.6772-0.052216-5.3545-0.10311-8.0317l-0.044284-2.675-0.0057283-0.34422-0.016524-0.99647-0.087687-4.0157c-0.025777-1.1588-0.05486-2.3177-0.085484-3.4767-0.0033048-0.12831-0.0059487-0.25661-0.0094738-0.38492-0.066536-2.4815-0.14629-4.9626-0.23728-7.4436-0.078434-0.0066794-0.15709-0.0094754-0.23574-0.011495l-0.11214 11.321-0.077552 8.0305c-0.0063893 2.317-0.030624 4.6339-0.032607 6.9507 0.0019829 0.35913 0.0039658 0.71827 0.0057283 1.0774l-0.0039657 0.70087c0.0099143 5.1187 0.056402 10.238 0.11963 15.358 0.038556 3.6786 0.085043 7.3576 0.11633 11.038 0.087687 0 0.17471-0.0031067 0.26218-0.004194 0.1258-3.1244 0.21988-6.2493 0.29809-9.3741 0.0026438-0.10423 0.005508-0.20846 0.0079315-0.31253" fill="#FC95A4"/>
</g>
</g>
</g>
</g>
</svg>
